UNB/img/about/pictograms-2.svg

<svg width="51" height="50" viewBox="0 0 51 50" fill="none" xmlns="http://www.w3.org/2000/svg">
<path d="M49.6667 40.625H48.5417V27.1594C48.5417 23.0578 45.7574 19.5313 41.7699 18.5859C41.5355 18.5297 41.3621 18.3313 41.3402 18.0906C41.3183 17.85 41.4511 17.6234 41.6714 17.525C43.3964 16.7578 44.5105 15.0437 44.5105 13.1578C44.5105 10.5203 42.3667 8.375 39.7292 8.375C37.0917 8.375 34.948 10.5203 34.948 13.1578C34.948 15.0437 36.0621 16.7578 37.7871 17.525C38.0621 17.6484 38.1917 17.9641 38.0808 18.2453C37.9699 18.525 37.6605 18.6703 37.3746 18.5703C32.7199 16.975 30.3011 14.9437 28.5183 13.1328C28.3621 13.875 27.9011 14.6438 27.1449 15.4313C26.9417 15.6406 26.7089 15.8828 26.4511 16.1469C28.8558 18.6094 32.3152 22.1188 32.3152 22.1188C32.4199 22.2234 32.4777 22.3656 32.4777 22.5141V40.625H31.3542V22.7453C30.6464 22.0266 27.7621 19.1 25.6667 16.9531C23.5714 19.1 20.6871 22.0266 19.9792 22.7453V40.625H18.8542V22.5141C18.8542 22.3656 18.9121 22.2234 19.0167 22.1188C19.0167 22.1188 24.2871 16.775 26.3371 14.6484C27.098 13.8578 27.4761 13.1438 27.4558 12.5234C27.4433 12.1031 27.2386 11.7094 26.8496 11.3516C26.4527 10.9875 25.6277 10.2281 23.8808 12.0781L23.598 12.3781C21.7214 14.375 19.5933 16.6375 13.9558 18.5687C13.6683 18.6672 13.3589 18.5219 13.2496 18.2437C13.1402 17.9625 13.2699 17.6469 13.5433 17.5234C15.2699 16.7563 16.3855 15.0422 16.3855 13.1563C16.3871 10.5203 14.2417 8.375 11.6042 8.375C8.96675 8.375 6.82143 10.5203 6.82143 13.1563C6.82143 15.0422 7.93706 16.7563 9.66362 17.5234C9.88393 17.6219 10.0167 17.8484 9.99487 18.0891C9.973 18.3297 9.79956 18.5281 9.56519 18.5844C5.57769 19.5313 2.79175 23.0563 2.79175 27.1594V40.625H1.66675V27.1594C1.66675 22.975 4.2355 19.3234 8.05425 17.875C6.59175 16.7734 5.698 15.0344 5.698 13.1563C5.698 9.9 8.348 7.25 11.6042 7.25C14.8605 7.25 17.5105 9.9 17.5105 13.1563C17.5105 14.2891 17.1855 15.3719 16.6058 16.2938C19.7933 14.7828 21.3042 13.1734 22.7777 11.6063L23.0621 11.3047C24.7277 9.54219 26.2605 9.27969 27.6089 10.5219C27.7636 10.6625 27.8996 10.8109 28.0183 10.9656L28.3621 11.3312C29.8605 12.9297 31.5167 14.6969 34.7089 16.2594C34.1417 15.3469 33.823 14.2766 33.823 13.1563C33.823 9.9 36.473 7.25 39.7292 7.25C42.9855 7.25 45.6355 9.9 45.6355 13.1563C45.6355 15.0328 44.7417 16.7719 43.2792 17.8734C47.0964 19.3219 49.6667 22.975 49.6667 27.1578V40.625V40.625Z" fill="#4A98F7"/>
</svg>

<svg width="51" height="50" fill="none" xmlns="http://www.w3.org/2000/svg"><path d="M49.667 40.625h-1.125V27.159a8.777 8.777 0 00-6.772-8.573.562.562 0 01-.099-1.061 4.784 4.784 0 002.84-4.367 4.787 4.787 0 00-4.782-4.783 4.787 4.787 0 00-4.781 4.783c0 1.886 1.114 3.6 2.84 4.367a.562.562 0 01-.413 1.045c-4.655-1.595-7.074-3.626-8.857-5.437-.156.742-.617 1.51-1.373 2.298-.203.21-.436.452-.694.716a2373.52 2373.52 0 005.864 5.972.558.558 0 01.163.395v18.111h-1.124v-17.88c-.708-.718-3.592-3.645-5.687-5.792-2.096 2.147-4.98 5.074-5.688 5.792v17.88h-1.125v-18.11c0-.15.058-.292.163-.396 0 0 5.27-5.344 7.32-7.47.761-.791 1.14-1.505 1.119-2.126-.013-.42-.217-.814-.606-1.171-.397-.364-1.222-1.124-2.97.726l-.282.3c-1.877 1.997-4.005 4.26-9.642 6.19a.562.562 0 01-.413-1.045 4.784 4.784 0 002.843-4.367 4.785 4.785 0 00-4.782-4.781 4.788 4.788 0 00-4.783 4.781c0 1.886 1.116 3.6 2.843 4.367a.563.563 0 01-.099 1.061 8.78 8.78 0 00-6.773 8.575v13.466H1.667V27.159a9.894 9.894 0 016.387-9.284 5.912 5.912 0 01-2.356-4.719 5.914 5.914 0 015.906-5.906 5.914 5.914 0 015.907 5.906 5.89 5.89 0 01-.905 3.138c3.187-1.511 4.698-3.12 6.172-4.688l.284-.301c1.666-1.763 3.198-2.025 4.547-.783.155.14.29.289.41.444l.343.365c1.498 1.599 3.155 3.366 6.347 4.928a5.874 5.874 0 01-.886-3.103 5.914 5.914 0 015.906-5.906 5.914 5.914 0 015.907 5.906 5.911 5.911 0 01-2.357 4.717 9.897 9.897 0 016.388 9.285v13.467z" fill="#4A98F7"/></svg>
